static/img/stratos-icon.svg

<svg width="50" height="50" viewBox="0 0 50 50" fill="none" xmlns="http://www.w3.org/2000/svg">
<g clip-path="url(#clip0_965_5544)">
<path d="M25 49.1833C38.3561 49.1833 49.1833 38.3561 49.1833 25C49.1833 11.6439 38.3561 0.81665 25 0.81665C11.6439 0.81665 0.81665 11.6439 0.81665 25C0.81665 38.3561 11.6439 49.1833 25 49.1833Z" fill="#00847B"/>
<path fill-rule="evenodd" clip-rule="evenodd" d="M30.9279 34.1667C30.9279 37.2945 28.389 39.8223 25.2556 39.8223C22.1279 39.8223 19.5834 37.2945 19.5834 34.1667C19.5834 33.2723 19.789 32.4279 20.1612 31.6779L17.7723 29.7334L17.7167 29.7001C16.9334 31.0056 16.489 32.539 16.489 34.1667C16.489 38.989 20.4112 42.9056 25.2556 42.9056C30.1001 42.9056 34.0279 38.9945 34.0279 34.1667C34.0279 29.3445 30.1056 25.4279 25.2612 25.4279H3.93896L9.58341 29.8834V28.5112H25.2556C28.3834 28.5167 30.9279 31.0445 30.9279 34.1667Z" fill="white"/>
<path fill-rule="evenodd" clip-rule="evenodd" d="M19.0724 15.8334C19.0724 12.7056 21.6113 10.1778 24.7446 10.1778C27.878 10.1778 30.4113 12.7056 30.4113 15.8334C30.4113 16.7278 30.2057 17.5723 29.8335 18.3223L32.2224 20.2667L32.278 20.3C33.0613 18.9945 33.5057 17.4611 33.5057 15.8334C33.5057 11.0111 29.5835 7.09448 24.7391 7.09448C19.8946 7.09448 15.9724 11.0056 15.9724 15.8334C15.9724 20.6556 19.8946 24.5723 24.7391 24.5723H46.0557L40.4113 20.1167V21.4889H24.7446C21.6169 21.4834 19.0724 18.9556 19.0724 15.8334Z" fill="white"/>
</g>
<defs>
<clipPath id="clip0_965_5544">
<rect width="50" height="50" fill="white"/>
</clipPath>
</defs>
</svg>

<svg xmlns="http://www.w3.org/2000/svg" width="50" height="50" fill="none"><g clip-path="url(#a)"><path fill="#00847B" d="M25 49.183c13.356 0 24.183-10.827 24.183-24.183S38.356.817 25 .817.817 11.644.817 25 11.644 49.183 25 49.183"/><path fill="#fff" fill-rule="evenodd" d="M30.928 34.167c0 3.127-2.539 5.655-5.672 5.655-3.128 0-5.673-2.528-5.673-5.655 0-.895.206-1.74.578-2.49l-2.389-1.944-.055-.033a8.66 8.66 0 0 0-1.228 4.467c0 4.822 3.922 8.739 8.767 8.739s8.772-3.911 8.772-8.74c0-4.821-3.922-8.738-8.767-8.738H3.94l5.644 4.455v-1.372h15.673c3.127.006 5.672 2.534 5.672 5.656M19.072 15.833c0-3.127 2.54-5.655 5.673-5.655a5.656 5.656 0 0 1 5.089 8.144l2.388 1.945.056.033a8.66 8.66 0 0 0 1.228-4.467c0-4.822-3.922-8.739-8.767-8.739s-8.767 3.912-8.767 8.74c0 4.822 3.923 8.738 8.767 8.738h21.317l-5.645-4.455v1.372H24.745c-3.128-.006-5.673-2.533-5.673-5.656" clip-rule="evenodd"/></g><defs><clipPath id="a"><path fill="#fff" d="M0 0h50v50H0z"/></clipPath></defs></svg>
